X:166
M:C|
L:1/8
K:A Minor
c>gg>a g<c e2|c<g g>a g<ce<g|c<g g>a g<c e2|G<G B>G d>B B<d|
c<g g>a g<c e2|c<g g>a g<ce<g|a>fg>e f<de<c|d<G B>G d>G B<d||

